Newaita-dark/actions/32/mail-mark-read.svg

<svg height="32" viewBox="0 0 32 32" width="32" xmlns="http://www.w3.org/2000/svg"><g fill="#e0e0e0"><path d="m2.644531 12.15625v11.910156c0 1.464844 1.183594 2.644532 2.648438 2.644532h21.167969c1.464843 0 2.644531-1.179688 2.644531-2.644532v-11.910156h-2.644531v10.585938c0 .734374-.589844 1.324218-1.324219 1.324218h-18.523438c-.730469 0-1.320312-.589844-1.320312-1.324218v-10.585938zm0 0"/><path d="m15.902344 5.546875c-.195313 0-.386719.035156-.5625.113281l-11.90625 5.292969c-.4375.1875-.738282.59375-.792969 1.066406-.050781.472657.15625.9375.539063 1.214844.386718.277344.894531.324219 1.324218.125l11.371094-5.054687 11.375 5.054687c.429688.199219.9375.152344 1.320312-.125.386719-.277344.59375-.742187.542969-1.214844-.054687-.472656-.355469-.878906-.792969-1.066406l-11.910156-5.292969c-.160156-.070312-.332031-.109375-.507812-.113281zm0 0"/><path d="m3.996094 10.832031c-.632813-.019531-1.191406.414063-1.328125 1.03125-.136719.621094.183593 1.25.765625 1.496094l11.90625 5.292969c.34375.152344.730468.152344 1.070312 0l11.910156-5.292969c.4375-.183594.738282-.59375.792969-1.066406.050781-.472657-.15625-.933594-.542969-1.210938-.382812-.28125-.890624-.328125-1.320312-.128906l-11.375 5.054687-11.371094-5.054687c-.160156-.074219-.332031-.113281-.507812-.121094zm0 0"/></g></svg>

<?xml version="1.0" encoding="UTF-8"?>
<svg xmlns="http://www.w3.org/2000/svg" xmlns:xlink="http://www.w3.org/1999/xlink" width="32px" height="32px" viewBox="0 0 32 32" version="1.1">
<g id="surface1">
<path style=" stroke:none;fill-rule:nonzero;fill:rgb(87.843138%,87.843138%,87.843138%);fill-opacity:1;" d="M 2.644531 12.15625 L 2.644531 24.066406 C 2.644531 25.53125 3.828125 26.710938 5.292969 26.710938 L 26.460938 26.710938 C 27.925781 26.710938 29.105469 25.53125 29.105469 24.066406 L 29.105469 12.15625 L 26.460938 12.15625 L 26.460938 22.742188 C 26.460938 23.476562 25.871094 24.066406 25.136719 24.066406 L 6.613281 24.066406 C 5.882812 24.066406 5.292969 23.476562 5.292969 22.742188 L 5.292969 12.15625 Z M 2.644531 12.15625 "/>
<path style=" stroke:none;fill-rule:nonzero;fill:rgb(87.843138%,87.843138%,87.843138%);fill-opacity:1;" d="M 15.902344 5.546875 C 15.707031 5.546875 15.515625 5.582031 15.339844 5.660156 L 3.433594 10.953125 C 2.996094 11.140625 2.695312 11.546875 2.640625 12.019531 C 2.589844 12.492188 2.796875 12.957031 3.179688 13.234375 C 3.566406 13.511719 4.074219 13.558594 4.503906 13.359375 L 15.875 8.304688 L 27.25 13.359375 C 27.679688 13.558594 28.1875 13.511719 28.570312 13.234375 C 28.957031 12.957031 29.164062 12.492188 29.113281 12.019531 C 29.058594 11.546875 28.757812 11.140625 28.320312 10.953125 L 16.410156 5.660156 C 16.25 5.589844 16.078125 5.550781 15.902344 5.546875 Z M 15.902344 5.546875 "/>
<path style=" stroke:none;fill-rule:nonzero;fill:rgb(87.843138%,87.843138%,87.843138%);fill-opacity:1;" d="M 3.996094 10.832031 C 3.363281 10.8125 2.804688 11.246094 2.667969 11.863281 C 2.53125 12.484375 2.851562 13.113281 3.433594 13.359375 L 15.339844 18.652344 C 15.683594 18.804688 16.070312 18.804688 16.410156 18.652344 L 28.320312 13.359375 C 28.757812 13.175781 29.058594 12.765625 29.113281 12.292969 C 29.164062 11.820312 28.957031 11.359375 28.570312 11.082031 C 28.1875 10.800781 27.679688 10.753906 27.25 10.953125 L 15.875 16.007812 L 4.503906 10.953125 C 4.34375 10.878906 4.171875 10.839844 3.996094 10.832031 Z M 3.996094 10.832031 "/>
</g>
</svg>
